X:1
T:Humours of Tallow
M:6/8
L:1/8
R:Jig
S:O'Farrell - Pocket Companion, vol. IV (1810)
Z:AK/Fiddler's Companion
N:1st ending added in part A.
K:Amin
A | EAA A(BA/G/) | ABd e2f | edB dBA | GBA GED |
EAA A(BA/G/) | ABd e2f | edB gdB |1 A3 A2 :|2 A3 A3||
|: eag age | gba b2a | ged edB | dBA GED |
EAA A(BA/G/) | ABd e2f | gfe dBG | A3A3 :||

